public/avatar/emote/3.svg

<svg xmlns:xlink="http://www.w3.org/1999/xlink" height="100.8" width="132.65" xmlns="http://www.w3.org/2000/svg"><use height="18.25" transform="translate(65.5 67.65)" width="24.45" xlink:href="#a"/><defs><g id="a"><path d="m.95-1.3 5.45.7q2.5.5 5.1 1.4l.7.85-3.15.25-1.7-.15-2.5-.2L.9 1.4l-6.3.1-2.5.25h-.25l-.6.1-3.45-.1-.05-.15q0-.7 2.35-1.6l3.15-.75.05-.05 5.45-.55h1.6l.6.05" fill-opacity=".153" fill-rule="evenodd" transform="translate(12.25 5.9)"/><path d="M1.35-3.15v.05l-.05.7-.2.1.25-.85" fill="#fff" fill-rule="evenodd" transform="translate(12.25 5.9)"/><path d="m.9-.6.05-.7v-.1l.15-.9.25-.85.35-.8q.6-1.1 1.4-1.35l.55-.1q1.15 0 1.95 1.45.65 1.1.8 2.65v.8M-6.7-.65l.05-.65q.15-1.5.8-2.6.75-1.45 1.9-1.45l.65.15q.75.25 1.3 1.3.6 1.05.75 2.45v.15l.05.6" fill="none" stroke="#666" stroke-linecap="round" stroke-linejoin="round" transform="translate(12.25 5.9)"/><path d="M1.75 9.65 1.2 11q-.55.85-1.35.85t-1.4-.85l-.5-1.4q2-1.8 3.8.05" fill="#c00" fill-rule="evenodd" transform="translate(12.25 5.9)"/><path d="m1.6 5.65.2 3.4-.05.6q-1.8-1.85-3.8-.05l-.05-.55.2-3.35 3.5-.05" fill-rule="evenodd" transform="translate(12.25 5.9)"/><path d="m-1.9 5.7.35-1.2q.6-.85 1.4-.85.8 0 1.35.85l.4 1.15-3.5.05" fill="#fff" fill-rule="evenodd" transform="translate(12.25 5.9)"/><path d="m1.6 5.65.2 3.4-.05.6L1.2 11q-.55.85-1.35.85t-1.4-.85l-.5-1.4-.05-.55.2-3.35.35-1.2q.6-.85 1.4-.85.8 0 1.35.85l.4 1.15Z" fill="none" stroke="#333" stroke-linecap="round" stroke-linejoin="round" transform="translate(12.25 5.9)"/></g></defs></svg>

<?xml version="1.0" encoding="UTF-8" standalone="no"?>
<svg xmlns:xlink="http://www.w3.org/1999/xlink" height="100.8px" width="132.65px" xmlns="http://www.w3.org/2000/svg">
  <g transform="matrix(1.0, 0.0, 0.0, 1.0, 77.75, 73.55)">
    <use height="18.25" transform="matrix(1.0, 0.0, 0.0, 1.0, -12.25, -5.9)" width="24.45" xlink:href="#shape0"/>
  </g>
  <defs>
    <g id="shape0" transform="matrix(1.0, 0.0, 0.0, 1.0, 12.25, 5.9)">
      <path d="M0.95 -1.3 L6.4 -0.6 Q8.9 -0.1 11.5 0.8 L12.2 1.65 9.05 1.9 7.35 1.75 4.85 1.55 0.9 1.4 -5.4 1.5 -7.9 1.75 -8.15 1.75 -8.75 1.85 -12.2 1.75 -12.25 1.6 Q-12.25 0.9 -9.9 0.0 L-6.75 -0.75 -6.7 -0.8 -1.25 -1.35 0.35 -1.35 0.95 -1.3" fill="#000000" fill-opacity="0.15294118" fill-rule="evenodd" stroke="none"/>
      <path d="M1.35 -3.15 L1.35 -3.1 1.3 -2.4 1.1 -2.3 1.35 -3.15" fill="#ffffff" fill-rule="evenodd" stroke="none"/>
      <path d="M0.9 -0.6 L0.95 -1.3 0.95 -1.4 1.1 -2.3 1.35 -3.15 1.7 -3.95 Q2.3 -5.05 3.1 -5.3 L3.65 -5.4 Q4.8 -5.4 5.6 -3.95 6.25 -2.85 6.4 -1.3 L6.4 -0.5 M-6.7 -0.65 L-6.65 -1.3 Q-6.5 -2.8 -5.85 -3.9 -5.1 -5.35 -3.95 -5.35 L-3.3 -5.2 Q-2.55 -4.95 -2.0 -3.9 -1.4 -2.85 -1.25 -1.45 L-1.25 -1.3 -1.2 -0.7" fill="none" stroke="#666666" stroke-linecap="round" stroke-linejoin="round" stroke-width="1.0"/>
      <path d="M1.75 9.65 L1.2 11.0 Q0.65 11.85 -0.15 11.85 -0.95 11.85 -1.55 11.0 L-2.05 9.6 Q-0.05 7.8 1.75 9.65" fill="#cc0000" fill-rule="evenodd" stroke="none"/>
      <path d="M1.6 5.65 L1.8 9.05 1.75 9.65 Q-0.05 7.8 -2.05 9.6 L-2.1 9.05 -1.9 5.7 1.6 5.65" fill="#000000" fill-rule="evenodd" stroke="none"/>
      <path d="M-1.9 5.7 L-1.55 4.5 Q-0.95 3.65 -0.15 3.65 0.65 3.65 1.2 4.5 L1.6 5.65 -1.9 5.7" fill="#ffffff" fill-rule="evenodd" stroke="none"/>
      <path d="M1.6 5.65 L1.8 9.05 1.75 9.65 1.2 11.0 Q0.65 11.85 -0.15 11.85 -0.95 11.85 -1.55 11.0 L-2.05 9.6 -2.1 9.05 -1.9 5.7 -1.55 4.5 Q-0.95 3.65 -0.15 3.65 0.65 3.65 1.2 4.5 L1.6 5.65 Z" fill="none" stroke="#333333" stroke-linecap="round" stroke-linejoin="round" stroke-width="1.0"/>
    </g>
  </defs>
</svg>
